X: 15447
T: Glen Of Aherlow, The
R: reel
M: 4/4
K: Edorian
|:"Bm"B2 AF BFAF|"Em" E2 EF ED ~B,2|"Bm" B2 AF BFAF|"D"DFAF "Em"FEEA|
"Bm"B2 AF BFAF|"Em"E2 EF EDB,A,|"Bm"B,E ~E2 DEFA|"Bm"dBAF "Em"FE ~E2:|
|:"Em"eB ~B2 ef"A"fe|"Bm"fd~d2 Adfd|"Em"eB ~B2 ef"A"fe|"Bm"dBAF "Em"FE ~E2|
"Em"eB ~B2 ef"A"fe|"Bm"fd ~d2 Adfd|"Em"B2 Bd "D"effe|"Bm"dBAF "Em"FE ~E2:|

